X:0033
T:The Recruiting Officer.
M:6/8
L:1/8
Q:3/8=120
I: :: ::
Z:Jack Campin * www.campin.me.uk * 2009
K:D
A     |def ecA|d3  A2G/F/|GAB AFD|E2E E2
A     |def edc|BgB AGF   |GAB cAc|d3  d2:|
e     |fga ecA|g3  f3    |Bcd efd|c3  A2
(a/g/)|fed cac|BgB AGF   |GAB cAc|d3  D2:|
<end>
<start>
